X:1
T:Title
%%score { ( 1 4 ) | ( 2 3 ) }
L:1/8
M:3/4
K:F
V:1 treble nm="Grand Piano"
V:4 treble 
V:2 bass 
V:3 bass 
V:1
 z2 z2[Q:1/4=100] FG | AB A2 G2 | G2 F2 FE | z F [DB]2 [Fd]2 |[M:2/4] c4 |[M:1/4] FG | %6
[M:3/4] AB A2 G2 | G2 F2 EF | AG [=B,D]2 [B,A]2 |[M:2/4] G4 |[M:1/4] FG |[M:3/4] AB A2 G2 | %12
 G2 F2 EF | G2 F2 G2 | [^CA]4 [CA][CA] | [EB]2 [EA]2 [EG]2 | c2 c2 c2 | cB A2 [EG]2 |[M:2/4] F4 | %19
[M:1/4] cc |[M:3/4] [Ec]2 [EG]2 [EB]2 | AG F2 AA | [^CA]2 [CE]2 [CG]2 | FE D2 [DF][DF] | %24
 [Fd]2 [Fd]2 [Fd]2 | c2 c2 c2 | cB A2 [EG]2 |[M:6/4] .F6 z6 |] %28
V:2
 z2 z2 [F,A,][F,B,F] | .C2 z2 z2 | [F,B,E]2 [F,A,]2 [A,,F,]2 | [B,,F,]2 [B,,F,]2 [B,,B,]2 | %4
[M:2/4] [F,A,F]4 |[M:1/4] [F,A,][F,B,F] |[M:3/4] .C2 z2 z2 | [F,B,E]2 [F,A,]2 [F,A,C]2 | %8
 [G,=B,]2 [G,,G,]2 [G,,F,]2 |[M:2/4] [C,E,B,]4 |[M:1/4] [F,A,][F,B,F] |[M:3/4] .C2 z2 z2 | %12
 [F,B,E]2 [F,A,]2 z F, | G,2 F,2 G,2 | [A,,E,]4 [A,,A,]2 | [C,G,]2 [C,C]2 [C,B,]2 | %16
 [F,A,F]2 [G,B,E]2 [A,C_E]2 | [B,D]2 [CE]2[K:bass] [C,B,]2 |[M:2/4] [F,A,]4 | %19
[M:1/4] [F,A,F][F,A,F] |[M:3/4] [C,B,]2 [C,B,]2 [C,G,]2 | A,G, F,2 A,A, | %22
 [A,,G,]2 [A,,E,]2 [A,,A,]2 | .A,2 z2 z2 | [B,,B,]2 [B,,B,]2 [B,,B,]2 | %25
 [F,A,F]2 [G,B,E]2 [A,C_E]2 | [B,D]2 [CE]2 [C,B,]2 |[M:6/4] .[F,A,]6 z6 |] %28
V:3
 x6 | [F,F]-[F,DF] [F,CF]2 [F,B,E]2 | x6 | x6 |[M:2/4] x4 |[M:1/4] x2 | %6
[M:3/4] [F,F]-[F,DF] [F,CF]2 [F,B,E]2 | x6 | x6 |[M:2/4] x4 |[M:1/4] x2 | %11
[M:3/4] [F,F]-[F,DF] [F,CF]2 [F,B,E]2 | z2 z2 E,2 | x6 | x6 | x6 | x6 | x4[K:bass] x2 |[M:2/4] x4 | %19
[M:1/4] x2 |[M:3/4] x6 | x6 | x6 | [D,D]-[D,G,D] [D,F,]2 [B,,B,][B,,B,] | x6 | x6 | x6 | %27
[M:6/4] x12 |] %28
V:4
 x6 | x6 | z2 z2 C2 | D2 z2 z2 |[M:2/4] x4 |[M:1/4] x2 |[M:3/4] x6 | x6 | x6 |[M:2/4] x4 | %10
[M:1/4] x2 |[M:3/4] x6 | x6 | x6 | x6 | x6 | x6 | x6 |[M:2/4] x4 |[M:1/4] x2 |[M:3/4] x6 | x6 | %22
 x6 | x6 | x6 | x6 | x6 |[M:6/4] x12 |] %28

